X:1
T:Title
%%score 1 2
L:1/8
Q:1/4=90
M:6/8
K:Db
V:1 treble nm="Grand Piano, Soprano"
V:2 bass nm="Choir Pad, Which Road Do You Travel?"
V:1
 D/D/[DF][DE] D[FA][EG] | [DF] [CE]2- [CE] [CA]2 | [DF][FA][EG] [DF][CE][DF] | %3
w: By~John~M.~Aiton,~1912 * * * * * *|||
 [EG] [DF]2- [DF]/ z/ z z | D/D/[DF][DE] D[FA][EG] | [DF] [CE]2- [CE] [CA]2 | %6
w: |||
 [DF]/[EG]/[FA][EG] [DF][CE][CF] | [CE] D2- D3/2 z/ z | [DA]/[DA]/[DB][DB] [DB][DG][DA] | %9
w: |||
 [DB] [FA]2- [FA] [DF]2 | [DA]/[DA]/[DB][DB] [DB][Ed][Ec] | [EB] [Ec]2- [Ec]3/2 z/ z | %12
w: |||
 [Ec]/[Ec]/[Fd][Fd] [Fd][Ge][Gd] | [GB] [FA]2- [FA] [DF]2 | [DF]/[EG]/[FA][EG] [DF][CE][CF] | %15
w: |||
 [CE] D2- D3- | D3 z3 |] %17
w: ||
V:2
 [D,F,]/[D,F,]/[D,A,][D,G,] [D,F,][D,A,][D,A,] | [D,A,] [A,,A,]2- [A,,A,] [A,,A,]2 | %2
 [D,A,][D,A,][D,A,] [D,A,][A,,A,][A,,A,] | [A,,A,] [D,A,]2- [D,A,]/ z/ z z | %4
 [D,F,]/[D,F,]/[D,A,][D,G,] [D,F,][D,A,][D,A,] | [D,A,] [A,,A,]2- [A,,A,] [A,,A,]2 | %6
 [D,A,]/[D,A,]/[D,A,][C,A,] [D,A,][A,,A,][A,,G,] | [A,,G,] [D,F,]2- [D,F,]3/2 z/ z | %8
 [D,F,]/[D,F,]/G,G, G,[G,B,][G,C] | [G,D] [D,D]2- [D,D] [D,A,]2 | %10
 [D,F,]/[D,F,]/G,G, G,[E,=G,][E,G,] | [E,=G,] A,2- A,3/2 z/ z | %12
 A,/A,/[D,A,][D,A,] [D,A,][G,B,][G,B,] | [G,D] [D,D]2- [D,D] [D,A,]2 | %14
 [D,A,]/[D,A,]/[D,A,][D,A,] [D,A,][A,,A,][A,,A,] | [A,,G,] [D,F,]2- [D,F,]3- | [D,F,]3 z3 |] %17

